X: 1
T: Peeler Boland's
M: 4/4
L: 1/8
R: reel
K: Ador
AB|:cAAG A2ed|cAAB dBGB|cAAG A2ed|cABc dBGB|
cAAG A2ed|cAAf g2fg|afge fded|cABc dBGB:|
|:E2AA2BA2|e2AB dBGB|E2AA2BA2|BABc dBGB|
E2AA2BA2|e2ef ggfg|afge fded|cABc dBGB:|
